X: 25
T: 22. HASTE TO THE WEDDING
B: Sam Bayard, "Hill Country Tunes" 1944 #22
S: Played by Emery Martin, Dunbar, PA, Oct 14 1943. Learned from his father.
R: jig
M: 6/8
L: 1/8
Z: 2010 John Chambers <jc:trillian.mit.edu>
K: D
D- |\
DFA Adf | "a."Adf fdd | "b."AFF DFF | EEE EFE |
DFA Adf | "a."Adf fdd | [AD]FA efe | [d3D3] [dD]z ||
(3e/f/g/ |\
aaa agf | gab baf | faa aff | gfg efg |
aaa "c."gff | edf fdd | [AD]FA dfd | [d3D3] [d2D2] |]
P: VAR:
"a."Aff || "b."dAF || "c."fff |] y6 y6 y6 y6 y6 y6

%%sep 2 1 500
%%sep 1 1 500

